assets/logos/icons/folder.svg

<svg height="24" viewBox="0 0 24 24" width="24" xmlns="http://www.w3.org/2000/svg"><path d="m10.8 5.99999997h-6.80000004v12.00000003h16.00000004v-10.00000003l-8.3.00000001zm-6.80000005-2.00000001h7.99999995l1 2h7c1.1000001.00000001 2.0000002.90000001 2 2v10.00000004c.0000002 1.1-.8999999 2-2 2h-15.99999995c-1.1 0-2-.9-2-2v-12.00000004c0-1.1.9-2 2-2zm2.50000002 6.00000003h11.00000003v2.00000001h-11.00000003zm0 3.00000001h7.00000003v2h-7.00000003z" fill="#492f5c" fill-rule="evenodd"/></svg>

<svg xmlns="http://www.w3.org/2000/svg" xmlns:xlink="http://www.w3.org/1999/xlink" width="24" height="24" viewBox="0 0 24 24">
  <defs>
    <path id="folder-a" d="M10.8,5.99999997 L3.99999996,5.99999997 L3.99999996,18 L20,18 L20,7.99999997 L11.7,7.99999998 L10.8,5.99999997 Z M3.99999995,3.99999996 L11.9999999,3.99999996 L12.9999999,5.99999996 L19.9999999,5.99999996 C21.1,5.99999997 22.0000001,6.89999997 21.9999999,7.99999996 L21.9999999,18 C22.0000001,19.1 21.1,20 19.9999999,20 L3.99999995,20 C2.89999995,20 1.99999995,19.1 1.99999995,18 L1.99999995,5.99999996 C1.99999995,4.89999996 2.89999995,3.99999996 3.99999995,3.99999996 Z M6.49999997,9.99999999 L17.5,9.99999999 L17.5,12 L6.49999997,12 L6.49999997,9.99999999 Z M6.49999997,13 L13.5,13 L13.5,15 L6.49999997,15 L6.49999997,13 Z"/>
  </defs>
  <use fill="#492F5C" fill-rule="evenodd" xlink:href="#folder-a"/>
</svg>
